src/img/advisory/sales.svg

<svg width="37" height="37" viewBox="0 0 37 37" fill="none" xmlns="http://www.w3.org/2000/svg">
<path d="M33.909 15.4129C32.4447 15.4147 31.183 16.4447 30.888 17.879H26.4791C26.3504 16.1848 25.6835 14.5761 24.5759 13.2876L27.6949 10.168C29.0155 11.04 30.7819 10.7705 31.7823 9.54435C32.7827 8.31815 32.6922 6.53362 31.5727 5.415C30.4533 4.29639 28.6687 4.20709 27.4433 5.20837C26.2178 6.20966 25.9495 7.97624 26.8225 9.29617L23.7035 12.4152C22.4151 11.3076 20.8063 10.6407 19.1121 10.512V6.10311C20.6627 5.7866 21.7217 4.34739 21.5626 2.77286C21.4036 1.19832 20.0781 0 18.4956 0C16.913 0 15.5875 1.19832 15.4285 2.77286C15.2694 4.34739 16.3284 5.7866 17.879 6.10311V10.5126C16.1848 10.6413 14.5761 11.3082 13.2876 12.4159L10.1686 9.29679C11.0416 7.97685 10.7733 6.21027 9.54785 5.20899C8.32237 4.20771 6.53777 4.297 5.41836 5.41562C4.29895 6.53424 4.2084 8.31877 5.20881 9.54496C6.20923 10.7712 7.97562 11.0407 9.29617 10.1686L12.4152 13.2883C11.3077 14.5765 10.6408 16.185 10.512 17.879H6.10311C5.7866 16.3284 4.34739 15.2694 2.77286 15.4285C1.19832 15.5875 0 16.913 0 18.4956C0 20.0781 1.19832 21.4036 2.77286 21.5626C4.34739 21.7217 5.7866 20.6627 6.10311 19.1121H10.5126C10.6413 20.8063 11.3082 22.4151 12.4159 23.7035L9.29679 26.8225C7.97685 25.9495 6.21027 26.2178 5.20899 27.4433C4.20771 28.6687 4.297 30.4533 5.41562 31.5727C6.53424 32.6922 8.31877 32.7827 9.54496 31.7823C10.7712 30.7819 11.0407 29.0155 10.1686 27.6949L13.2876 24.5759C14.5761 25.6835 16.1848 26.3504 17.879 26.4791V30.888C16.3284 31.2045 15.2694 32.6437 15.4285 34.2183C15.5875 35.7928 16.913 36.9911 18.4956 36.9911C20.0781 36.9911 21.4036 35.7928 21.5626 34.2183C21.7217 32.6437 20.6627 31.2045 19.1121 30.888V26.4791C20.8063 26.3504 22.4151 25.6835 23.7035 24.5759L26.8225 27.6949C25.9495 29.0149 26.2178 30.7815 27.4433 31.7827C28.6687 32.784 30.4533 32.6947 31.5727 31.5761C32.6922 30.4575 32.7827 28.673 31.7823 27.4468C30.7819 26.2206 29.0155 25.9511 27.6949 26.8232L24.5759 23.7035C25.6835 22.4151 26.3504 20.8063 26.4791 19.1121H30.888C31.2124 20.7015 32.7132 21.7675 34.3208 21.5505C35.9284 21.3335 37.0928 19.9078 36.9842 18.2892C36.8756 16.6707 35.5312 15.4132 33.909 15.4129ZM28.0864 6.28807C28.8088 5.56584 29.9799 5.56591 30.7021 6.28822C31.4244 7.01053 31.4244 8.18159 30.7021 8.9039C29.9799 9.62621 28.8088 9.62628 28.0864 8.90405C27.7395 8.55717 27.5446 8.08667 27.5446 7.59606C27.5446 7.10546 27.7395 6.63495 28.0864 6.28807ZM16.6459 3.08207C16.6459 2.06055 17.474 1.23245 18.4956 1.23245C19.5171 1.23245 20.3452 2.06055 20.3452 3.08207C20.3452 4.10358 19.5171 4.93169 18.4956 4.93169C17.474 4.93169 16.6459 4.10358 16.6459 3.08207ZM6.28807 8.90467C5.56584 8.18231 5.56591 7.01126 6.28822 6.28899C7.01053 5.56671 8.18159 5.56671 8.9039 6.28899C9.62621 7.01126 9.62628 8.18231 8.90405 8.90467C8.55717 9.25161 8.08667 9.44652 7.59606 9.44652C7.10546 9.44652 6.63495 9.25161 6.28807 8.90467ZM3.08207 20.3452C2.06055 20.3452 1.23245 19.5171 1.23245 18.4956C1.23245 17.474 2.06055 16.6459 3.08207 16.6459C4.10358 16.6459 4.93169 17.474 4.93169 18.4956C4.93169 19.5171 4.10358 20.3452 3.08207 20.3452ZM8.90467 30.703C8.31289 31.2955 7.39686 31.4165 6.67154 30.998C5.94622 30.5795 5.59259 29.7258 5.80946 28.917C6.02632 28.1081 6.75957 27.5459 7.59699 27.5464C8.33954 27.5573 9.0045 28.0086 9.28872 28.6947C9.57294 29.3808 9.42198 30.1702 8.90467 30.703ZM20.3452 33.909C20.3452 34.9306 19.5171 35.7587 18.4956 35.7587C17.474 35.7587 16.6459 34.9306 16.6459 33.909C16.6459 32.8875 17.474 32.0594 18.4956 32.0594C19.5171 32.0594 20.3452 32.8875 20.3452 33.909ZM30.703 28.0864C31.05 28.4333 31.2449 28.9038 31.2449 29.3944C31.2449 29.885 31.05 30.3555 30.703 30.7024C29.9711 31.4013 28.819 31.4013 28.0871 30.7024C27.6198 30.2351 27.4373 29.554 27.6083 28.9157C27.7793 28.2773 28.2779 27.7787 28.9163 27.6077C29.5546 27.4366 30.2357 27.6191 30.703 28.0864ZM18.4956 25.2775C14.75 25.2775 11.7136 22.2411 11.7136 18.4956C11.7136 14.75 14.75 11.7136 18.4956 11.7136C22.2411 11.7136 25.2775 14.75 25.2775 18.4956C25.2731 22.2393 22.2393 25.2731 18.4956 25.2775ZM33.909 20.3452C32.8875 20.3452 32.0594 19.5171 32.0594 18.4956C32.0594 17.474 32.8875 16.6459 33.909 16.6459C34.9306 16.6459 35.7587 17.474 35.7587 18.4956C35.7587 19.5171 34.9306 20.3452 33.909 20.3452Z" fill="#19338B"/>
</svg>

<svg xmlns="http://www.w3.org/2000/svg" width="37" height="37" fill="none"><path fill="#19338B" d="M33.9 15.41a3.09 3.09 0 00-3.01 2.47h-4.41c-.13-1.7-.8-3.3-1.9-4.6l3.11-3.11a3.08 3.08 0 10-.87-.87l-3.12 3.12a7.97 7.97 0 00-4.59-1.9V6.1a3.08 3.08 0 10-1.23 0v4.41c-1.7.13-3.3.8-4.6 1.9L10.18 9.3a3.08 3.08 0 10-.87.87l3.12 3.12a7.97 7.97 0 00-1.9 4.59H6.1a3.08 3.08 0 100 1.23h4.41c.13 1.7.8 3.3 1.9 4.6L9.3 26.81a3.08 3.08 0 10.87.87l3.12-3.11a7.97 7.97 0 004.59 1.9v4.4a3.08 3.08 0 101.23 0v-4.4c1.7-.13 3.3-.8 4.6-1.9l3.11 3.11a3.08 3.08 0 10.87-.87l-3.11-3.12a7.97 7.97 0 001.9-4.59h4.4a3.08 3.08 0 103.03-3.7zM28.1 6.3A1.85 1.85 0 1130.7 8.9 1.85 1.85 0 0128.1 6.3zm-11.44-3.2a1.85 1.85 0 113.7 0 1.85 1.85 0 01-3.7 0zM6.29 8.9A1.85 1.85 0 118.9 6.3 1.85 1.85 0 016.3 8.9zm-3.2 11.45a1.85 1.85 0 110-3.7 1.85 1.85 0 010 3.7zM8.9 30.7a1.85 1.85 0 11-1.3-3.15 1.86 1.86 0 011.3 3.15zm11.45 3.2a1.85 1.85 0 11-3.7 0 1.85 1.85 0 013.7 0zM30.7 28.1a1.85 1.85 0 010 2.61c-.73.7-1.88.7-2.61 0a1.85 1.85 0 012.61-2.61zm-12.2-2.81a6.78 6.78 0 110-13.57 6.78 6.78 0 010 13.57zm15.4-4.93a1.85 1.85 0 110-3.7 1.85 1.85 0 010 3.7z"/></svg>
